!!!!SEGMENT: pl-wn--sd-xvi-qu-273--043_gomolka-mikolaj--niewinnosc-panie-moje.krn
!!!cenid: 15xx:248
!!!COM: Gomółka, Mikołaj
!!!COM-rismid: pe30013343
!!!CDT: ~1535->1591/04/30
!!!CNT: Polish
!!!GTL: Melodiae na psalterz polski
!!!OTL: XLIII. Niewinność, Panie, moję
!!!ONB: PSALM XLIII. Iudica me Deus, et discerne causam meam de gente non sancta:
!!!PDT: 1580
!!!AGN: Sacred
!!!SMS-siglum: PL-Wn
!!!SMS-shelfmark: SD XVI.Qu.273
!!!SMS-shelfwork: 043 G
!!!NIFC-rismid:
!!!ONB-nifc: Melodiae na psalterz polski
**kern	**text	**kern	**text	**kern	**text	**kern	**text
*part4	*part4	*part3	*part3	*part2	*part2	*part1	*part1
*staff4	*staff4	*staff3	*staff3	*staff2	*staff2	*staff1	*staff1
*clefF4	*	*clefC3	*	*clefC2	*	*clefC1	*
*k[b-]	*	*k[b-]	*	*k[b-]	*	*k[b-]	*
*c:	*	*c:	*	*c:	*	*c:	*
*M2/1	*	*M2/1	*	*M2/1	*	*M2/1	*
*met(C|)	*	*met(C|)	*	*met(C|)	*	*met(C|)	*
*I"BASSUS.	*	*I"TENOR.	*	*I"ALTUS.	*	*I"CANTUS.	*
=1-	=1	=1-	=1	=1-	=1	=1-	=1
1G\	NIe-	1B-/	NIe-	1d/	NIe-	1g\	NIe-
1E-X\	-win-	2.B-/	-win-	1e-X\	-win-	1b-\	-win-
.	.	4c/	.	.	.	.	.
=2-	=2	=2-	=2	=2-	=2	=2-	=2
2BB-/	-ność,	4d\	-ność,	2f\	-n(ość,)	2b-\	-no(ść,)
.	.	4e\	.	.	.	.	.
2D/	pá-	2f\	pá-	2d/	pá-	1a\	pá-
2AA/	-nie,	4e\	-nie,	2c#X/	-nie,	.	.
.	.	4d\	.	.	.	.	.
2BB-/	mo-	1d\	mo-	2d/	mo-	2g/	-nie,
=3-	=3	=3-	=3	=3-	=3	=3-	=3
1AA/	.	.	.	1eny\	.	1a\	mo-
.	.	2c#X\	.	.	.	.	.
2D/	-ię	2d\	-ię	2f#X\	-ię	2a\	-ię
2AA/	Przy(y-	2e\	Przyj-	4a\	Przyy-	2cc\	Przyy-
.	.	.	.	4g\	.	.	.
=4-	=4	=4-	=4	=4-	=4	=4-	=4
2BB-/	-mi)	4d\	-mi	4fny\	-mi	2b-\	-(mi)
.	.	4e\	.	4e/	.	.	.
2FF/	w o-	4f\	w o-	4d/	w o-	2a\	w o-
.	.	4e\	.	4cny/	.	.	.
2GG/	-bro-	2d\	-bro-	2B-/	-bro-	2g/	-bro-
2C/	-nę	4cny/	-nę	2e/	-nę	1g\	-(nę)
.	.	4B-/	.	.	.	.	.
=5-	=5	=5-	=5	=5-	=5	=5-	=5
1D\	swo-	4A/	swo-	2.d/	swo-	.	.
.	.	4G/	.	.	.	.	.
.	.	2A/	.	.	.	2f/	swo-
.	.	.	.	4c/	.	.	.
2GG/	-(ię):	2G/	-ię:	2B-/	-(ię):	2g/	-ię:
2BB-/	Prze-	2d\	Prze-	2d/	Prze-	2f/	Prze-
=6-	=6	=6-	=6	=6-	=6	=6-	=6
!LO:SIC:s=2E-:v	!	!	!	!	!	!	!
2Eny\	-(ciw)	2B-/	-(ciw)	2e-X/	-(ciw)	2g/	-ciw
2C/	po-	2c/	po-	2e-/	po-	2g/	po-
2D/	-twa-	2A/	-t(wa-	2d/	-t(wa-	2f/	-twa-
2BB-/	-(rzy)	1B-/	-rzy)	1d/	-rzy)	2f/	-(rzy)
=7-	=7	=7-	=7	=7-	=7	=7-	=7
1F\	ży-	.	.	.	.	1f/	ży-
.	.	2A/	ży-	2c/	ży-	.	.
!!LO:PB:g=original
2BB-/	-wéy,	2B-/	-wéy,	2d/	-wéy,	2f/	-wéy,
1D\	y	1A/	y	1d/	y	1f/	y
=8-	=8	=8-	=8	=8-	=8	=8-	=8
.	.	.	.	.	.	.	.
2GG/	po-	2B-/	po-	2d/	po-	2g/	po-
2G\	-wie-	2G/	-wie-	2d/	-wie-	2b-\	-wie-
2F\	-ś(ci)	2A/	-ś(ci)	2d/	-(ści)	2a\	-(ści)
=9-	=9	=9-	=9	=9-	=9	=9-	=9
2E\	fał-	2B-/	fał-	2d/	fał-	2g/	fał-
2E\	-szy-	2G/	-szy-	2c/	-szy-	2g/	-szy-
2D/	-wéy:	2A/	-(wéy):	2d/	-(wéy):	2f/	-w(éy):
2D/	Ch(ciey)	2d\	Ch(ciey)	2f\	Ch(ciey)	2a\	Ch(ciey)
=10-	=10	=10-	=10	=10-	=10	=10-	=10
2F\	sie	2c/	s(ie)	2f\	si(e)	2a\	s(ie)
!	!	!	!	!LO:SIC:s=2e-:v	!	!	!
2.C/	pr(zy)	2c/	p(rzy)	2eny/	pr(zy)	2g/	p(rzy)
.	.	2e-X\	m(nie)	2g\	m(nie)	2cc\	m(nie)
4D\	.	.	.	.	.	.	.
!LO:SIC:s=4E-:v	!	!	!	!	!	!	!
4Eny\	m(nie)	2e-\	zá-	2g\	zá-	2cc\	zá-
4F\	.	.	.	.	.	.	.
=11-	=11	=11-	=11	=11-	=11	=11-	=11
2G\	zá-	1d\	-stá-	1g\	-st(á-	1b-\	-(stá-
2GG/	-(stá-	.	.	.	.	.	.
2D\	-wić,)	2d\	-(wić,)	2f\	-wić),	2a\	-wić,)
2.BB-/	Mn(ie)	2.f\	Mn(ie)	2b-\	Mn(ie)	2.dd\	Mn(ie)
=12-	=12	=12-	=12	=12-	=12	=12-	=12
.	.	.	.	2b-\	.	.	.
4C/	.	4eny\	.	.	.	4cc\	.
4D\	z rąk	2d\	z r(ąk)	2f\	z r(ąk)	2b-\	z r(ąk)
4E\	.	.	.	.	.	.	.
1F\	sro-	4c/	sro-	2f\	sro-	4a\	sro-
.	.	4B-/	.	.	.	4g/	.
.	.	4c\	.	2f\	.	4a\	-gich
.	.	4d\	.	.	.	4b-\	.
=13-	=13	=13-	=13	=13-	=13	=13-	=13
4C/	-gich	1e\	-gich	2g\	.	1cc\	wy-
4D/	.	.	.	.	.	.	.
4E\	.	.	.	2.g\	-gich	.	.
4F\	.	.	.	.	.	.	.
2G\	wy-	2d\	wy-	.	.	2b-\	.
.	.	.	.	4f\	wy-	.	.
2C/	-bá-	4c/	.	2e/	-bá-	4a\	.
.	.	4B-/	.	.	.	4g\	.
=14-	=14	=14-	=14	=14-	=14	=14-	=14
1D\	-wić.	4A/	bá-	1d/	-wić.	4f/	-bá-
.	.	4G/	.	.	.	2g\	.
.	.	2A/	-wić!	.	.	.	.
.	.	.	.	.	.	4f/	-wić.
*000/left	*	*	*	*	*	*	*
000GG/	.	000G/	.	000d/	.	000g\	.
==	==	==	==	==	==	==	==
*-	*-	*-	*-	*-	*-	*-	*-
!!!RDF**kern: l = terminal long
!!!system-decoration: s1,s2,s3,s4
!!!ENC: Marta Lawrence
!!!END: 2020-02-08
!!!URL-scan: https://polona.pl/item/melodiae-na-psalterz-polski,Nzk3MTM4ODQ/107 Scan on Polona
!!!IIIF: https://polona.pl/iiif/item/Nzk3MTM4ODQ/manifest.json
